X:1
T:Miserere mei, Domine
T:Canon in unisone, Quator vocum
T:Jan Pieterszoon Sweelinck
%%score 1 2 3 4
L:1/8
Q:1/4=72
M:4/4
K:F
V:1 treble nm="Soprano" snm="S."
V:2 treble nm="Alto" snm="A."
V:3 treble-8 nm="Tenor" snm="T."
V:4 bass nm="Bass" snm="B."
V:1
"^Adagio" A6 A2 | A2 B2 A2 A2 | (d3 e f2) e2 | d4 z2 d2 | A2 d3 d (c2- | c=B/A/ _B2) A2 A2 | %6
w: Mi- se-|re- re mei, _|Do _ _ mi-|ne. Et|ex- au- di o|_ _ _ _ ra- ti-|
 d2 D2 E4 | D4 z4 || A6 A2 | A2 B2 A2 A2 | (d3 e f2) e2 | d4 z2 d2 | A2 d3 d (c2- | %13
w: o- nem me-|am,|Mi- se-|re- re mei, _|Do _ _ mi-|ne. Et|ex- au- di o|
 c=B/A/ _B2) A2 A2 | d2 D2 E4 | D4 z4 || A6 A2 | A2 B2 A2 A2 | (d3 e f2) e2 | d4 z2 d2 | %20
w: _ _ _ _ ra- ti-|o- nem me-|am,|Mi- se-|re- re mei, _|Do _ _ mi-|ne. Et|
 A2 d3 d (c2- | c=B/A/ _B2) A2 A2 | d2 D2 E4 | !fermata!D4 z4 | A6 A2- | AABB A2 A2- | A8 |] %27
w: ex- au- di o|_ _ _ _ ra- ti-|o- nem me-|am,|o- ra-|* ti- o- nem me- am.||
V:2
 D6 ^C2 | D2 G,2 (D3 E | FEFG A2) E2 | (^F2 G4 =FE | D2) B,2 A,4 | z4 D2 D2 | F2 FG A2 A,2 | %7
w: Mi- se-|re- re mei, _|_ _ _ _ _ _|Do _ _ _|_ mi- ne.|Et ex-|au- di o- ra- ti-|
 A2 G2 F2 E2 || D6 ^C2 | D2 G,2 (D3 E | FEFG A2) E2 | (^F2 G4 =FE | D2) B,2 A,4 | z4 D2 D2 | %14
w: o- nam me- am,|Mi- se-|re- re mei, _|_ _ _ _ _ _|Do _ _ _|_ mi- ne.|Et ex-|
 F2 FG A2 A,2 | A2 G2 F2 E2 || D6 ^C2 | D2 G,2 (D3 E | FEFG A2) E2 | (^F2 G4 =FE | D2) B,2 A,4 | %21
w: au- di o- ra- ti-|o- nam me- am,|Mi- se-|re- re mei, _|_ _ _ _ _ _|Do _ _ _|_ mi- ne.|
 z4 D2 D2 | F2 FG A2 A,2 | A2 G2 F2 E2 | D2 D4 ^C2 | D2 G,2 D2 D2- | D8 |] %27
w: Et ex-|au- di o- ra- ti-|o- nam me- am,|o- ra- ti-|o- nem me- am.||
V:3
 z8 | z8 | z8 | z8 | z8 | z8 | z8 | z8 || z8 | z8 | A6 A2 | A2 B2 A2 A2 | (d3 e f2) e2 | d4 z2 d2 | %14
w: ||||||||||Mi- se-|re- re mei, _|Do _ _ mi-|ne. Et|
 A2 d3 d (c2- | c=B/A/ _B2) A2 A2 || d2 D2 E4 | D4 z4 | A6 A2 | A2 B2 A2 A2 | (d3 e f2) e2 | %21
w: ex- au- di o|_ _ _ _ ra- ti-|o- nem me-|am,|Mi- se-|re- re mei, _|Do _ _ mi-|
 d4 z2 d2 | A2 d3 d (c2- | c=B/A/ _B2) A2 A2 | d2 D2 E4 | D8- | D8 |] %27
w: ne. Et|ex- au- di o|_ _ _ _ ra- ti-|o- nem me-|am.||
V:4
 z8 | z8 | z8 | z8 | z8 | z8 | z8 | z8 || z8 | z8 | D,6 ^C,2 | D,2 G,,2 (D,3 E, | %12
w: ||||||||||Mi- se-|re- re mei, _|
 F,E,F,G, A,2) E,2 | (^F,2 G,4 =F,E, | D,2) B,,2 A,,4 | z4 D,2 D,2 || F,2 F,G, A,2 A,,2 | %17
w: _ _ _ _ _ _|Do _ _ _|_ mi- ne.|Et ex-|au- di o- ra- ti-|
 A,2 G,2 F,2 E,2 | D,6 ^C,2 | D,2 G,,2 (D,3 E, | F,E,F,G, A,2) E,2 | (^F,2 G,4 =F,E, | %22
w: o- nam me- am,|Mi- se-|re- re mei, _|_ _ _ _ _ _|Do _ _ _|
 D,2) B,,2 A,,4 | z4 D,2 D,2 | F,2 F,G, A,2 A,,2 | A,A, G,2 ^F,4- | F,8 |] %27
w: _ mi- ne.|Et ex-|au- di o- ra- ti-|o- nem me- am.||

